assets/icons/qvision/inbox.svg

<svg xmlns="http://www.w3.org/2000/svg" height="24" viewBox="0 0 24 24" width="24"><path d="M0 0h24v24H0V0z" fill="none"/><path d="M19 3H4.99c-1.11 0-1.98.89-1.98 2L3 19c0 1.1.88 2 1.99 2H19c1.1 0 2-.9 2-2V5c0-1.11-.9-2-2-2zm0 12h-4c0 1.66-1.35 3-3 3s-3-1.34-3-3H4.99V5H19v10z"/></svg>

<svg width="24" height="24" viewBox="0 0 24 24" fill="none" xmlns="http://www.w3.org/2000/svg">
<g clip-path="url(#clip0_147_2170)">
<path d="M19 3H4.99C3.88 3 3.01 3.89 3.01 5L3 19C3 20.1 3.88 21 4.99 21H19C20.1 21 21 20.1 21 19V5C21 3.89 20.1 3 19 3ZM19 15H15C15 16.66 13.65 18 12 18C10.35 18 9 16.66 9 15H4.99V5H19V15Z" fill="#323232"/>
</g>
<defs>
<clipPath id="clip0_147_2170">
<rect width="24" height="24" fill="white"/>
</clipPath>
</defs>
</svg>
